src/assets/svg/facebook.svg

<svg width="66" height="66" viewBox="0 0 66 66" fill="none" xmlns="http://www.w3.org/2000/svg">
<circle cx="33" cy="33" r="33" fill="#2BAA9B"/>
<path d="M43.8903 14.8499H38.4453C36.0385 14.8499 33.7302 15.806 32.0283 17.5079C30.3264 19.2098 29.3703 21.518 29.3703 23.9249V29.3699H23.9253V36.6299H29.3703V51.1499H36.6303V36.6299H42.0753L43.8903 29.3699H36.6303V23.9249C36.6303 23.4435 36.8215 22.9818 37.1619 22.6415C37.5023 22.3011 37.9639 22.1099 38.4453 22.1099H43.8903V14.8499Z" fill="white"/>
</svg>

<svg xmlns="http://www.w3.org/2000/svg" width="66" height="66" fill="none"><circle cx="33" cy="33" r="33" fill="#2baa9b"/><path d="M43.9 14.85h-5.445c-2.407 0-4.715.956-6.417 2.658s-2.658 4-2.658 6.417v5.445h-5.445v7.26h5.445v14.52h7.26V36.63h5.445l1.815-7.26h-7.26v-5.445c0-.48.19-.943.532-1.283s.802-.532 1.283-.532H43.9v-7.26z" fill="#fff"/></svg>
